X:1
T:Cinq Mélodies Op. 58
T:A Clymène
T:4. A Clymène
T:Paul Verlaine
T:Gabriel Fauré
T:Cinq Mélodies, Op.58
T:OpenScore (CC0)
T:OpenScore (CC0)
T:OpenScore (CC0)
T:OpenScore (CC0)
T:OpenScore (CC0)
T:OpenScore (CC0)
C:Gabriel Fauré
Z:Paul Verlaine
Z:OpenScore (CC0)
%%score 1 { ( 2 4 ) | ( 3 5 6 7 ) }
L:1/8
Q:1/4=92
M:9/8
K:F
V:1 treble nm="Voice"
V:2 treble nm="Piano"
V:4 treble 
V:3 bass 
V:5 bass 
V:6 bass 
V:7 bass 
V:1
"^Andantino." z9 | z9 | z9 | z2 z z2 z E3 | A3- A2 A =B2 G | (c6 F3) | c6- c3 | z9 | z9 | z9 | z9 | %11
w: |||Mys-|ti- * ques bar- ca-|rol   - *|les, _|||||
 z2 z z2 z!p! E3 | A3- A2 A =B2 G | c6 F3 | c6- c3 | z9 | z9 | z9 |"^dolce" (_e6- e3- | %19
w: Ro-|man- * ces  sans pa-|ro- *|les, _||||Chè \-- *|
!<(! _e6-!>(! e3-!<)!!>)! | _e3) _E6 | z2 z _E3 F2 G |!<(! A2 A d3- d2!<)! c | %23
w: |* re,|Puis- que tes|yeux, Cou- leur _ des|
!>(! =B3 d3 F2!>)! F ||[M:4/4][Q:1/4=70]"^Un poco più mosso" c4- c2 z c | d4- d d B3/2 B/ | %26
w: cieux, Puis- que ta|voix _ é-|tran~\-- * \-~ge, Vi- si-|
 G4 z2"^cresc." c3/2 _e/ | d2 B2- B z B2 |!<(! c4- c c ^c3/2!<)! c/ || %29
w: \- on qui dé-|ran- ge _ Et|trou \-- * \- ble l'ho- ri-|
[M:9/8]!f![Q:1/4=92]"^Tempo I."!>(! d6- d3-!>)! | d3- d2 c A2 =B |!p! G6- G z z | z9 | %33
w: \- zon _|_ _ De ma rai-|son, _||
 z3"^dolce" A3 A2 A | B6- B2 _G | =A6 A z A |!<(! B2 B _G3- G2!<)! G |!>(! _d6!>)! _c3 | %38
w: Puis- que~ l'a-|rô- * me‿in-|si- gne, De|ta pâ- leur _ de|cy- gne,|
 z2 z"^cresc." __B3 _c2 c | =c2 c _e3- e2 G | _A2 B A6 | (2:3:2z!<(! =A (2:3:2=B B c2!<)! c | %42
w: Et puis- que|la can- deur _ De|ton o- deur,|Ah! pour que tout ton|
!f! f6 A3 | z z B d3- d2 c | d2 d!>(! e3- e2!>)! d | z2 z"^dim." d3- d2 d |!>(! c6 A2!>)! G | %47
w: ê~\-- \-~tre|Mu- si~\-- * \-~que|qui pé- nè- * tre,|Nim- * bes|d'an~\-- \-~ges dé-|
 A6- A2 z |!<(! c6 d2 e!<)! |!f! e6-!>(! e3- | e6-!>)! e3 | z9 | z2 z"^dolce" ^F3- F2 F | %53
w: \- funts, _|Tons et par-|fums, _|_ _||A- * zur|
 (d3 D3) E2 ^F | ^G6 G2 z | d3 (2:3:2D D E2 ^F | ^G6 G3 | z2 z z2 z C3 | _D6 F3 | G6- (2:3:2G A | %60
w: d'al- * mes ca-|den- ces,|En ses cor- res- pon-|dan- ces|In-|duit mon|coeur _ sub-|
 B6- B3- | B3 z2 z z2 z | z9 | z9 | z2 z z2 z!p!!<(! d3!<)! | _e6-!>(! e2 c | d6- d3-!>)! | %67
w: til, _|_|||Ain-|si _ soit-|il. _|
!pp! d6- d3 | z9 | z9 | z9 |] %71
w: _ _||||
V:2
"^dolce espressivo"!p! (d3- d2 c =B3- | =B2 d B2 c A2 B | G3- GAF G3 | A6) z z [^CE] | %4
[I:staff +1](xA,[I:staff -1]A, DFA) z z [=B,DG] |[I:staff +1](xG,[I:staff -1]G, CEG) z z [F,CF] | %6
[I:staff +1] (E,G,)[I:staff -1](G, CEG) !>!F3 |!<(! c6 ^c3!<)! |!mf!!>(! (!>!d3- d2 c!>)! =B3- | %9
!p! =B2 d B2 c A2 B | G3- GAF G3 | A6) z z [^CE] |[I:staff +1](xA,[I:staff -1]A, DFA) z z [=B,DG] | %13
[I:staff +1](xG,[I:staff -1]G, CEG) z z [F,_B,F] | x3 CEA !>!F3 |!<(! (c6 ^c3)!<)! | %16
!mf! (d3- d2 _e =c3- |!>(! c2 d B2 c A2!>)! B |!p! G3- GAF G3 | A6 F3 | G3- GAF G3 | A6 F2 G | %22
!<(! A3- A=BG!<)! A3 |!>(! =B3- BcA B3!>)! ||[M:4/4]!p! [CFc]) z (3CFc x2 (3CFc | %25
 x2 (3DGd x2 (3DFB | x2 (3Gcg x2"_cresc." (3_EFc | x2 (3DGB x2 (3DGB | %28
!<(! x2 (3(cGC) x2 (3(^cE!<)!^C) ||[M:9/8]!f!!>(! (d3- d2 c =B3-!>)! | =B2 d B2 c A2 B | %31
!p! G3- GAF G3- | G3- GAF G3 |"^dolce" A6-) A3 | z2 z B,_GB z2 z | =A6- A3 | z2 z B,_GB z2 z | %37
z2zx_E_dxE_c |x_E__B"_cresc."xE__BxE_c |x_E=c[K:bass]xA,_ExG,A, |!>(!x_A,D CA,D, A,D!>)!C | %41
!<(!xA,=B, z ^G,B,x=G,!<)!C |!mf!xA,C FCA, CA,F, |xF,B,xB,DxA,C |(xG,D!>(! z ^G,Ex)D!>)!E | %45
[K:treble]"_dim."xDF AFD z DF |!>(!xCF AFCxF!>)!G | z2 z[K:bass] E,A,C A,CE | %48
[K:treble]"^cresc." x3 ^G,CE CE^G |!f! x3!<(! ^G,CE CE!<)!^G |!ff!!>(! (^c'3- c'2!>)! =b ^a3- | %51
 ^a2 ^c' a2 =b ^g2 a |!p! ^f3- f^ge f3- | ^f6 e3 | d3- de^c d3- | d6) (D3 |!>(! d3-!>)! d2 c =B3- | %57
 =B2 c A2 _B =G2 A | F3- FG=E F3 | G6- G3 | F3- FG=E F3 | G6-) G3 |!pp! x3 A,CF A z z | %63
 x3 A,^CE A z z | x3 A,DF A z z | x3 A,C_E A z z | x3 B,DF!<(! A3!<)! |!>(! B6- B2!>)! G | %68
!pp! A6- A3 | x3 A,D^F Ad^f | a6- a3 |] %71
V:3
!>(!!ped! (D,,A,,F,) (F,A,D) z2!>)!!ped-up! z |!ped! (A,,A,E,) (E,A,E) z2!ped-up! z | %2
!ped! (D,,G,,F,) (F,G,=B,) z2!ped-up! z |!ped! (^C,,A,,E,) (E,A,E) [G,A,]3!ped-up! | F,6 [F,G,]3 | %5
 E,6 [G,,-D,]3 | G,,6 [D,,G,,]3 | C,,G,,E, x3 [A,,G,]3 |!ped! (D,,A,,F,) (F,A,D) z2!ped-up! z | %9
!ped! (A,,A,E,) (E,A,E) z2!ped-up! z |!ped! (D,,G,,F,) (F,G,=B,) z2!ped-up! z | %11
!ped! (^C,,A,,E,) (E,A,E) [G,A,]3!ped-up! | F,6 [F,G,]3 | E,6 [G,,-D,]3 | C,E,A, x3 [D,,G,,]3 | %15
!ped! (C,,A,,C, E,A,[I:staff -1]C)!ped-up![I:staff +1] [B,,G,]3 | %16
!ped! !>!A,,D,^F, CD^F z2!ped-up! z | G,,_E,G, G,B,_E z2 z |x_E,A, E,A,C z2 z | %19
!ped!x_E,,B,, B,,_E,B,!ped-up! [G,,D,]3 |x_E,A, E,A,C z2 z | %21
!ped!x_E,,B,, B,,_E,B,!ped-up! [A,,D,]3 |xF,=B, F,B,D [_E,^F,]3 | %23
!ped!x^G,,D, F,^G,D!ped-up! z2 z ||[M:4/4]!ped!(3xF,A,x2!ped-up!!ped!(3xF,A, x2!ped-up! | %25
!ped!(3xG,B,!ped-up!x2!ped!(3xB,D x2!ped-up! | %26
!ped!(3xC=Exx/x/!ped-up!!ped!(3xC,A, x x/ x/!ped-up! | %27
!ped!(3xG,B,xx/x/!ped-up!!ped!(3xG,B, x x/ x/!ped-up! | %28
!ped!(3(xG,A,)xx/x/!ped-up!!ped!(3(xG,A,) x x/ x/!ped-up! || %29
[M:9/8]!ped! (D,,A,,F,) (F,A,D) z2!ped-up! z |!ped! (A,,A,E,) (E,A,E) z2!ped-up! z | %31
!ped! (D,,G,,F,) (F,G,=B,) z2!ped-up! z |!ped! ^C,,A,,E, x2 z z2!ped-up! z | %33
!ped!x^F,,_E, x3 x z!ped-up! z |!ped!x_G,,_D,- D,3 =D,3!ped-up! |!ped!x^F,,_E, x3 x z!ped-up! z | %36
!ped!x_G,,_D,- D,3 =D,3!ped-up! |!ped!x_G,,_C,,- C,,6!ped-up! | _G,,6- G,,3 | F,,6- F,,3 | %40
 (B,,,3 =E,,3 [F,,,F,,]3) | ([^F,,,^F,,]3 [^G,,,^G,,]3 [A,,,A,,]3) | [=G,,,=G,,]6- [G,,,G,,]3 | %43
 [C,,C,]6- [C,,C,]3 | [B,,,B,,]3 !>![=B,,,=B,,]6 | ([C,,C,]6 [F,,F,]3 | [E,,E,]6 [D,,D,]3) | %47
!ped! A,,6 !>!C,3!ped-up! |!ped! !>!E,6 !>!C,3!ped-up! |!ped! !>!^G,,6 !>!E,,3!ped-up! | %50
!ped! (!>!^C,,^G,,E,) (E,^G,^C) z2!ped-up! z |!ped! (^G,,E,=B,) (E,B,E) z2!ped-up! z | %52
!ped! (^C,^F,^A,) (F,^A,E) z2!ped-up! z |!ped! (=B,,E,^G,) (E,G,D) z2!ped-up! z | %54
!ped! (_B,,=F,_A,) (F,A,D) z2!ped-up! z |!ped! (=B,,=E,^G,) (E,G,D) z2!ped-up! z | %56
!ped! ([A,,,A,,]D,F, ^G,[I:staff -1]DF)[I:staff +1] z2!ped-up! z | %57
!ped! (A,,F,^G, A,CF) z2!ped-up! z |!ped! (B,,,F,,_D,) (D,F,_D) z2!ped-up! z | %59
!ped! A,,,A,,^C, E,G,[I:staff -1]A,[I:staff +1] x!ped-up! z z | %60
!ped! (_D,,B,,_D,) (D,F,B,) z2!ped-up! z | %61
!ped! =E,,B,,_D, =E,[I:staff -1]G,B,[I:staff +1] x!ped-up! z z |!ped! F,,C,F, x3 x2!ped-up! x | %63
!ped! A,,E,G, x3 x2!ped-up! x |!ped!xA,,F, x3 x2!ped-up! x |!>(!!ped!xC,!>)!^F, x3 x2!ped-up! x | %66
!ped!xB,,=F, x3[I:staff -1] A!ped-up![I:staff +1] z z | %67
!ped!xB,,E, G,[I:staff -1]B,D[I:staff +1] x!ped-up! z z |!ped!xA,,^F, x4 z z |xx-x- [A,,F,]6- | %70
 [A,,F,]6- [A,,F,]3!ped-up! |] %71
V:4
 x9 | x9 | x9 | x9 | x9 | x9 | x6 z z [F,C] | x3[I:staff +1] G,[I:staff -1]CE z z [^CE] | x9 | x9 | %10
 x9 | x9 | x9 | x9 | x6 z z [F,B,] | x6 z z [^CE] | x9 | x9 | x9 | x6 B,3 | x9 | x6 B,3 | x9 | %23
 [DF]3- [DF] z z z2 z ||[M:4/4] x8 | x8 | x8 | x8 | x8 ||[M:9/8] x9 | x9 | x9 | x3 A,E x4 | %33
 x3 A,_E^F A3/2 x3/2 | x9 | x3 A,_E^F x x2 | x9 | x3 __B,3 _C3 | _D3 __D3 _C3 | %39
 A,3[K:bass] G,3 _E,3 | D,6- D,3 | ^D,6 E,3 | =D,6- D,3 | D,3 F,3 E,3 | D,6 ^G,3 | %45
[K:treble] A,6- A,3 | A,6 =B,3 | x3[K:bass] x6 |[K:treble] x9 | x9 | x9 | x9 | x9 | x9 | x9 | x9 | %56
 x9 | x9 | x9 | x6 ^C x2 | x9 | x6 _D x2 | x9 | x9 | x9 | x9 | x9 | x6 E x2 | x3 A,D^F x x2 | x9 | %70
 x9 |] %71
V:5
 x9 | x9 | x9 | x9 | x9 | x9 | x9 | x9 | x9 | x9 | x9 | x9 | x9 | x9 | G,,6 x3 | x9 | x9 | x9 | %18
 F,,6- F,,3 | B,,,6 x3 | F,,6- F,,3 | B,,,6 x3 | G,,6- G,,3 | C,,6- C,,3 ||[M:4/4] A,,4 E,4 | %25
 _E,4 G,4 | B,4 F,,4 | _E,4 F,4 | E,4 A,,4 ||[M:9/8] x9 | x9 | x9 | x9 | C,,3 x6 | B,,,3 x6 | %35
 C,,3 x6 | B,,,3 x6 | !>!_E,3 x2 x2 x2 | x9 | x9 | x9 | x9 | x9 | x9 | x9 | x9 | x9 |xE,A, x6 | %48
x^G,C x6 |xE,C x6 | x9 | x9 | x9 | x9 | x9 | x9 | x9 | x9 | x9 | x9 | x9 | x9 | x9 | x9 | %64
 D,,6- D,,3 | D,,6- D,,3 | D,,6- D,,3 | D,,6- D,,3 | D,,6- D,,3 | D,,6- D,,3- | D,,6- D,,3 |] %71
V:6
 x9 | x9 | x9 | x9 | x9 | x9 | x9 | x9 | x9 | x9 | x9 | x9 | x9 | x9 | x9 | x9 | x9 | x9 | x9 | %19
 x9 | x9 | x9 | x9 | x9 ||[M:4/4] x8 | x8 | x8 | x8 | x8 ||[M:9/8] x9 | x9 | x9 | x9 | x9 | x9 | %35
 x9 | x9 | x9 | x9 | x9 | x9 | x9 | x9 | x9 | x9 | x9 | x9 | x9 | x9 | x9 | x9 | x9 | x9 | x9 | %54
 x9 | x9 | x9 | x9 | x9 | x9 | x9 | x9 | x9 | x9 | x9 | x9 | x9 | x9 | x9 | x A,,2 x6 | x9 |] %71
V:7
 x9 | x9 | x9 | x9 | x9 | x9 | x9 | x9 | x9 | x9 | x9 | x9 | x9 | x9 | x9 | x9 | x9 | x9 | x9 | %19
 x9 | x9 | x9 | x9 | x9 ||[M:4/4] x8 | x8 | x8 | x8 | x8 ||[M:9/8] x9 | x9 | x9 | x9 | x9 | x9 | %35
 x9 | x9 | x9 | x9 | x9 | x9 | x9 | x9 | x9 | x9 | x9 | x9 | x9 | x9 | x9 | x9 | x9 | x9 | x9 | %54
 x9 | x9 | x9 | x9 | x9 | x9 | x9 | x9 | x9 | x9 | x9 | x9 | x9 | x9 | x9 | x2 ^F, x6 | x9 |] %71

